public/images/divisions/data_science/real_time_data_analysis/icon_1.svg

<svg width="50" height="50" viewBox="0 0 50 50" fill="none" xmlns="http://www.w3.org/2000/svg">
<rect width="50" height="50" rx="8" fill="url(#paint0_linear_11_20193)"/>
<path d="M17.5003 35.3128C17.2516 35.3128 17.0132 35.214 16.8374 35.0382C16.6616 34.8624 16.5628 34.6239 16.5628 34.3753V29.3714C16.0485 29.6167 15.4784 29.7218 14.9104 29.6761C14.4295 29.6407 13.9623 29.4998 13.542 29.2634C13.1217 29.0269 12.7587 28.7007 12.4788 28.308C12.1989 27.9153 12.009 27.4657 11.9227 26.9912C11.8363 26.5168 11.8556 26.0292 11.9791 25.563C12.1027 25.0969 12.3275 24.6637 12.6375 24.2943C12.9475 23.9249 13.3351 23.6284 13.7727 23.4258C14.2104 23.2233 14.6873 23.1197 15.1695 23.1224C15.6518 23.1252 16.1275 23.2342 16.5628 23.4417V18.4378C16.5628 18.1891 16.6616 17.9507 16.8374 17.7749C17.0132 17.5991 17.2516 17.5003 17.5003 17.5003H22.9729C22.7276 16.986 22.6225 16.4159 22.6683 15.8479C22.7036 15.367 22.8445 14.8998 23.081 14.4795C23.3174 14.0592 23.6436 13.6962 24.0363 13.4163C24.429 13.1364 24.8786 12.9465 25.3531 12.8602C25.8275 12.7738 26.3152 12.7931 26.7813 12.9166C27.2475 13.0402 27.6806 13.265 28.05 13.575C28.4194 13.885 28.7159 14.2726 28.9185 14.7102C29.121 15.1479 29.2246 15.6248 29.2219 16.107C29.2191 16.5893 29.1101 17.065 28.9026 17.5003H34.3753C34.6239 17.5003 34.8624 17.5991 35.0382 17.7749C35.214 17.9507 35.3128 18.1891 35.3128 18.4378V23.4417C34.7985 23.1963 34.2284 23.0912 33.6604 23.137C33.1795 23.1723 32.7123 23.3133 32.292 23.5497C31.8717 23.7862 31.5087 24.1124 31.2288 24.5051C30.9489 24.8978 30.759 25.3474 30.6727 25.8218C30.5863 26.2963 30.6056 26.7839 30.7291 27.2501C30.8527 27.7162 31.0775 28.1494 31.3875 28.5188C31.6975 28.8882 32.0851 29.1847 32.5227 29.3872C32.9604 29.5898 33.4373 29.6934 33.9195 29.6906C34.4018 29.6879 34.8775 29.5789 35.3128 29.3714V34.3753C35.3128 34.6239 35.214 34.8624 35.0382 35.0382C34.8624 35.214 34.6239 35.3128 34.3753 35.3128H17.5003Z" stroke="white" stroke-width="2" stroke-linecap="round" stroke-linejoin="round"/>
<defs>
<linearGradient id="paint0_linear_11_20193" x1="0" y1="25.6757" x2="50" y2="25.6757" gradientUnits="userSpaceOnUse">
<stop stop-color="#00469F"/>
<stop offset="1" stop-color="#1E79D6"/>
</linearGradient>
</defs>
</svg>

<svg xmlns="http://www.w3.org/2000/svg" width="50" height="50" fill="none" xmlns:v="https://vecta.io/nano"><rect width="50" height="50" rx="8" fill="url(#A)"/><path d="M17.5 35.313c-.249 0-.487-.099-.663-.275a.94.94 0 0 1-.275-.663v-5.004c-.514.245-1.084.35-1.652.305-.481-.035-.948-.176-1.368-.413a3.28 3.28 0 0 1-1.619-2.272 3.28 3.28 0 0 1 .056-1.428c.124-.466.348-.899.658-1.269a3.28 3.28 0 0 1 1.135-.869c.438-.203.915-.306 1.397-.303a3.28 3.28 0 0 1 1.393.319v-5.004c0-.249.099-.487.275-.663s.414-.275.663-.275h5.473c-.245-.514-.35-1.084-.305-1.652a3.28 3.28 0 0 1 1.368-2.432 3.28 3.28 0 0 1 2.745-.5 3.28 3.28 0 0 1 2.137 1.794c.202.438.306.915.303 1.397a3.28 3.28 0 0 1-.319 1.393h5.473a.94.94 0 0 1 .663.275c.176.176.275.414.275.663v5.004c-.514-.245-1.084-.351-1.652-.305a3.28 3.28 0 0 0-2.432 1.368 3.28 3.28 0 0 0-.5 2.745c.124.466.348.899.658 1.269a3.28 3.28 0 0 0 2.532 1.172 3.28 3.28 0 0 0 1.393-.319v5.004a.94.94 0 0 1-.937.938H17.5z" stroke="#fff" stroke-width="2" stroke-linejoin="round"/><defs><linearGradient id="A" x1="0" y1="25.676" x2="50" y2="25.676" gradientUnits="userSpaceOnUse"><stop stop-color="#00469f"/><stop offset="1" stop-color="#1e79d6"/></linearGradient></defs></svg>
